X:44
T:Royal Scotch Quick March. Le4.044, The
B:L.Leadley MS#4 c1850
Z:Village Music Project, 2016 Steve Mansfield
M:2/4
L:1/8
Q:2/4=50
K:F
C | F>G B/A/G/F/ | Ac fe/f/ | dc cB/>A/ | AGFC |
F>G (B/A/G/F/) | Ac f(e/f/) | dc (A/B/).c/.B/ | AGF :|
|: A | f>edf | edc^c | dAA^c | d>efC |
F>G (B/A/G/F/) | A/c/d/e/ .f(e/f/) | dc A/B/c/B/ | AGF :|

